X:1
T:På Fjeldesti
T:W Peterson-Berger(1867-1942)
T:Text: Björnstjerne Björnson
T:På Fjeldesti
T:©CPDL Edition may be freely distributed, duplicated, performed and recorded PA Aglert
T:©CPDL Edition may be freely distributed, duplicated, performed and recorded PA Aglert
T:©CPDL Edition may be freely distributed, duplicated, performed and recorded PA Aglert
C:W Peterson-Berger(1867-1942)
Z:©CPDL Edition may be freely distributed, duplicated, performed and recorded
Z:PA Aglert
%%score [ 1 2 3 4 ]
L:1/8
Q:1/4=100
M:4/4
K:Db
V:1 treble nm="S"
V:2 treble nm="A"
V:3 treble-8 nm="T"
V:4 bass nm="B"
V:1
"^Un poco allegro"!mf! F2 F2 A2 F2 | E2 (DE) F4 |!<(! A2 c2!<)! e2 d2 |!>(! B4!>)! A4 | %4
w: Når du skal på|fjel- de- * sti|og skal ni- sten|snö- re,|
w: Fu- gle hil- se|dig fra _ gren,|Byg- des- nak- ke|vi- ger;|
 F2 F2 A2 F2 | E2 (DE) D4 |!<(! E2 F2 G2!<)! B2 |!f! e4!>)!!>(! d4 |:!mf! d2 (ed) c2 B2 | %9
w: læg så ic- ke|me- re _ i|end du godt kan|för- re.|Drag ej _ med dig|
w: Luf- ten bli- ver|me- re _ ren,|hö- je- re du|sti- ger.|Fyld dit _ gla- de|
 c2 F2 f4 | f2 =d2 B2 g2 |!>(! f4!>)! e4 |!<(! d2 (ed) c2!<)! B2 |!>(! A2 E2 F4!>)! | %14
w: da- lens tvang|i de grön- ne|li- der,|skyl dem _ i en|frej- dig sang|
w: bryst og syng,|og små bar- ne-|min- der|nik- ke _ vil blandt|busk og lyng|
!<(! F2 (cB) A2!<)! f2 |!>(! e4 d4!>)! :| %16
w: ned ad _ fjel- dets|si- der!|
w: frem med _ rö- de|kin- der.|
V:2
!mf! D2 D2 D2 D2 | C2 (B,C) D4 |!<(! A2 A2 B2!<)! B2 |!>(! G4!>)! F4 | D2 D2 D2 D2 | C2 (B,C) B,4 | %6
w: Når du skal på|fjel- de- * sti|og skal ni- sten|snö- re,|læg så ic- ke|me- re _ i|
w: Fu- gle hil- se|dig fra _ gren,|Byg- des- nak- ke|vi- ger;|Luf- ten bli- ver|me- re _ ren,|
!<(! B,2 D2!<)! D2 G2 |!f! G4!>)!!>(! F4 |:!mf! B2 B2 F2 F2 | A2 A2 A4 | A2 A2 A2 B2 | %11
w: end du godt kan|för- re.|Drag ej med dig|da- lens tvang|i de grön- ne|
w: hö- je- re du|sti- ger.|Fyld dit gla- de|bryst og syng,|og små bar- ne-|
!>(! A4!>)! G4 |!<(! G2 G2 G2!<)! G2 |!>(! G2 E2 (E2!>)! D2) |!<(! D2 F2 F2!<)! A2 | %15
w: li- der,|skyl dem i en|frej- dig sang _|ned ad fjel- dets|
w: min- der|nik- ke vil blandt|busk og lyng _|frem med rö- de|
!>(! G4!>)! F4 :| %16
w: si- der!|
w: kin- der.|
V:3
!mf! A2 A2 A2 A2 | A2 A2 A4 |!<(! d2 d2!<)! d2 d2 |!>(! (d2 c2)!>)! d4 | A2 A2 A2 A2 | A2 A2 F4 | %6
w: Når du skal på|fjel- de- sti|og skal ni- sten|snö- * re,|læg så ic- ke|me- re i|
w: Fu- gle hil- se|dig fra gren,|Byg- des- nak- ke|vi- * ger;|Luf- ten bli- ver|me- re ren,|
!<(! B2 B2 B2!<)! d2 |!f! (d2!>(! c2)!>)! A4 |:!mf! f2 f2 e2 d2 | f2 f2 (c2 e2) | =d2 f2 d2 (cd) | %11
w: end du godt kan|för- * re.|Drag ej med dig|da- lens tvang _|i de grön- ne _|
w: hö- je- re du|sti- * ger.|Fyld dit gla- de|bryst og syng, _|og små bar- ne- *|
!>(! (B2 =d2)!>)! (e2 =A2) |!<(! B2 B2 c2!<)! d2 |!>(! c2 c2 (c2 B2)!>)! |!<(! d2 d2 d2!<)! d2 | %15
w: li- * der, _|skyl dem i en|frej- dig sang _|ned ad fjel- dets|
w: min- * der _|nik- ke vil blandt|busk og lyng _|frem med rö- de|
!>(! (d2 c2)!>)! d4 :| %16
w: si- * der!|
w: kin- * der.|
V:4
!mf! D,2 D,2 F,2 D,2 | A,,2 A,,2 D,4 |!<(! F,2 F,2!<)! G,2 G,2 |!>(! A,4!>)! D,4 | %4
w: Når du skal på|fjel- de- sti|og skal ni- sten|snö- re,|
w: Fu- gle hil- se|dig fra gren,|Byg- des- nak- ke|vi- ger;|
 D,2 D,2 F,2 D,2 | A,,2 A,,2 B,,4 |!<(! G,2 F,2 E,2!<)! E,2 |!f! A,4!>)!!>(! D,4 |: %8
w: læg så ic- ke|me- re i|end du godt kan|för- re.|
w: Luf- ten bli- ver|me- re ren,|hö- je- re du|sti- ger.|
!mf! B,,2 B,2 B,2 B,2 | F,2 F,2 F,4 | B,2 B,2 B,2 B,2 |!>(! E,4!>)! E,4 |!<(! E,2 E,2 E,2!<)! E,2 | %13
w: Drag ej med dig|da- lens tvang|i de grön- ne|li- der,|skyl dem i en|
w: Fyld dit gla- de|bryst og syng,|og små bar- ne-|min- der|nik- ke vil blandt|
!>(! A,2 A,2 (=A,2 B,2)!>)! |!<(! =G,2 G,2 A,2!<)! A,2 |!>(! A,4 D,4!>)! :| %16
w: frej- dig sang _|ned ad fjel- dets|si- der!|
w: busk og lyng _|frem med rö- de|kin- der.|

